X:1
T:Be Glad in the Lord
T:Be Glad in the Lord
T:James McGranahan
T:Mary Elizabeth Servoss, before 1913
T:Public Domain Courtesy of the Cyber Hymnal™
T:Public Domain Courtesy of the Cyber Hymnal™
C:James McGranahan
Z:Public Domain
Z:Courtesy of the Cyber Hymnal™
%%score 1 ( 2 3 )
L:1/8
Q:1/4=110
M:4/4
K:Bb
V:1 treble 
V:2 bass 
V:3 bass 
V:1
 [DF]2 | [DF]2 [B,D]>[CE] [DF]2 [DB]>[Ec] | [Fd]6 [FB]2 | [Ec]2 [Ec]>[Ec] [Ec]2 [Fd]>[Fc] | %4
w: 1.~Be|glad in the Lord, and re-|joice, All|ye that are up- right in|
w: 2.~Be|joy- ful, for He is the|Lord, On|earth and in Heav- en su-|
w: 3.~What|though in the con- flict for|right Your|en- e- mies al- most pre-|
w: 4.~Though|dark- ness sur- round you by|day, Your|sky by the night be o’er-|
w: 5.~Be|glad in the Lord, and re-|joice, His|prais- es pro- claim- ing in|
 [DB]6 [DF]2 | [DF]2 [B,D]>[CE] [DF]2 [DB]>[Ec] | [Fd]6 ([Ge][Fd]) | %7
w: heart; And|ye that have made Him your|choice, Bid *|
w: preme; He|fa- shions and rules by His|word— The *|
w: vail? God’s|ar- mies, just hid from your|sight, Are *|
w: cast, Let|no- thing your spir- it dis-|may, But *|
w: song; With|harp and with or- gan and|voice The *|
 [Ec]2 [Ec]>[Ec] [Ec]2 [Fd]>[Ec] | [DB]6 ||"^Refrain" [DB]2 | [Ge]6 [Ge]2 | [Fd]6 ([Ge][Fd]) | %12
w: sad- ness and sor- row de-|part.||||
w: ‘Might- y’ and ‘Strong’ to re-|deem.|Re-|joice, re-|joice, Be *|
w: more than the foes which as-|sail.||||
w: trust till the dan- ger is|past.||||
w: loud hal- le- lu- jahs pro-|long!||||
 [Ec]2 [Ec]>[Ec] [Ec]2 [DB]>[Ec] | [Fd]6 [DB]2 | [Ge]6 [Ge]2 | [Fd]6 [Fd]2 | %16
w: ||||
w: glad in the Lord and re-|joice; Re-|joice, re-|joice, Be|
w: ||||
w: ||||
w: ||||
 [Bf]2 [Ae]>[Bd] [Fc]2 [Fd]>[Ec] | [DB]6 |] %18
w: ||
w: glad in the Lord and re-|joice.|
w: ||
w: ||
w: ||
V:2
 [B,,B,]2 | [B,,B,]2 [B,,F,]>[B,,F,] [B,,B,]2 [B,,F,]>[B,,F,] | [B,,B,]6 [D,B,]2 | %3
w: ~|~ ~ ~ ~ ~ ~|~ ~|
 [F,A,]2 [F,A,]>[F,A,] [F,A,]2 [F,B,]>F, | [B,,F,]6 [B,,B,]2 | %5
w: ~ ~ ~ ~ ~ ~|~ ~|
 [B,,B,]2 [B,,F,]>[B,,F,] [B,,B,]2 [B,,F,]>[B,,F,] | [B,,B,]6 [B,,B,]2 | %7
w: ~ ~ ~ ~ ~ ~|~ ~|
 [F,A,]2 [F,A,]>[F,A,] [F,A,]2 [F,B,]>[F,A,] | [B,,B,]6 || B,2 | [E,B,]2 [E,B,]>[E,B,] B,2 B,2 | %11
w: ~ ~ ~ ~ ~ ~|~|Re-|joice in the Lord, re-|
 (B,F,) (G,A,) [B,,B,]2 [B,,B,]2 | [F,A,]2 [F,A,]>[F,A,] [F,A,]2 [F,B,]>[F,A,] | %13
w: joice, * re- * joice, ~|~ ~ ~ ~ ~ ~|
 B,2 [B,,B,]2 [B,,B,]2 B,2 | [E,B,]2 [E,B,]>[E,B,] B,2 B,2 | (B,F,) (G,A,) [B,,B,]2 B,2 | %16
w: ~ re- joice, re-|joice in the Lord, re-|joice, * re- * joice *|
 [F,D]2 [F,C]>[F,B,] [F,A,]2 [F,B,]>[F,A,] | [B,,B,]6 |] %18
w: ||
V:3
 x2 | x8 | x8 | x15/2 F,/ | x8 | x8 | x8 | x8 | x6 || B,2 | x4 (E,F,) (F,A,) | B,2 B,,2 x4 | x8 | %13
 B,2 x2 B,2 x2 | x4 (E,F,) (G,A,) | B,2 B,,2 x B,2 x | x8 | x6 |] %18

